!!!!SEGMENT: pl-kk--kk-i-513--018_haser-august-ferdinand--miserere-sacrificium-deo-spiritus.krn
!!!cenid: 17xx:1858
!!!COM: Häser, August Ferdinand
!!!COM-rismID: pe37240
!!!CDT: 1779/10/15-1844/11/01
!!!CNT: German
!!!OPR: Miserere
!!!OTL: Sacrificium Deo spiritus
!!!OMV: 018
!!!PDT:
!!!AGN: Sacred
!!!SMS-siglum: PL-Kk
!!!SMS-shelfmark: Kk.I.513
!!!SMS-shelfwork: 001-018 M
!!!SMS-variant:
!!!SMS-altvar:
!!!NIFC-rismSourceID: 1001138559
!!!NIFC-islandoraID: pl-kk:14834
!!!URL-pdf-islandora: https://repozytorium.nifc.pl/islandora/object/pl-kk%3A14834/datastream/PDF/view
!!!URL-scan: https://polish.musicsources.pl/pl/lokalizacje/galeria/rekopisy/6123 @EN{Scan on Polish Music Sources Website} @PL{Skany w portalu Dziedzictwo Muzyki Polskiej w otwartym dostępie}
!!!ONB-nifc:
!!!AIN: 1 alto 1 bass 1 empty 1 organ 1 soprn 1 tenor
!!!key:
**kern	**kern	**kern	**text	**dynam	**kern	**text	**dynam	**kern	**text	**dynam	**kern	**text	**dynam
*part6	*part5	*part4	*part4	*part4	*part3	*part3	*part3	*part2	*part2	*part2	*part1	*part1	*part1
*staff6	*staff5	*staff4	*staff4	*	*staff3	*staff3	*	*staff2	*staff2	*	*staff1	*staff1	*
*Iempty	*Iorgan	*Ibass	*	*	*Itenor	*	*	*Ialto	*	*	*Isoprn	*	*
*	*I"[Organo]	*I"Basso.	*	*	*I"Tenore.	*	*	*I"Alto	*	*	*I"Soprano.	*	*
*	*I'[org]	*I'B	*	*	*I'T	*	*	*I'A	*	*	*I'S	*	*
*clefF4	*clefG2	*clefF4	*	*	*clefC4	*	*	*clefG2	*	*	*clefG2	*	*
*k[f#c#]	*k[f#c#]	*k[f#c#]	*	*	*k[f#c#]	*	*	*k[f#c#]	*	*	*k[f#c#]	*	*
*D:	*D:	*D:	*	*	*D:	*	*	*D:	*	*	*D:	*	*
*M3/4	*M3/4	*M3/4	*	*	*M3/4	*	*	*M3/4	*	*	*M3/4	*	*
*2\right	*2\right	*2\right	*	*	*2\right	*	*	*2\right	*	*	*2\right	*	*
!LO:TX:t=P:problem=all\right&colon; global	!LO:TX:t=P:problem=all\right&colon; global	!LO:TX:t=P:problem=all\right&colon; global	!	!	!LO:TX:t=P:problem=all\right&colon; global	!	!	!LO:TX:t=P:problem=all\right&colon; global	!	!	!LO:TX:t=P:problem=all\right&colon; global	!	!
!	!LO:TX:t=P:problem=w źródle brak oznaczenia tempa	!	!	!	!	!	!	!	!	!	!	!	!
!	!	!	!	!	!	!	!	!LO:TX:a:Bi:t=No 18.:problem='No 18.' znajduje się przed kluczem i oznaczeniem metrum na pięciolinii	!	!	!LO:TX:a:Bi:t=No 18.:problem='No 18.' znajduje się przed kluczem i oznaczeniem metrum na pięciolinii	!	!
!	!LO:TX:a:Bi:t=No 18.:problem='No 18.' znajduje się przed kluczem i oznaczeniem metrum na pięciolinii	!LO:TX:a:Bi:t=No 18.:problem='No 18.' znajduje się przed kluczem i oznaczeniem metrum na pięciolinii	!	!	!LO:TX:a:Bi:t=No 18.:problem='No 18.' znajduje się przed kluczem i oznaczeniem metrum na pięciolinii	!	!	!	!	!	!	!	!
!	!LO:TX:a:t=D:problem=dopisane ołówkiem	!	!	!	!	!	!	!	!	!	!	!	!
!	!	!LO:TX:a:Bi:t=Grave.:rj	!	!	!LO:TX:a:Bi:t=Grave:rj	!	!	!LO:TX:a:Bi:t=Grave.:rj	!	!	!LO:TX:a:Bi:t=Grave:rj	!	!
!	!	!	!	!	!	!	!LO:DY:a:rj	!	!	!	!	!	!LO:DY:a:t=%sor.:rj
4A 4D\	4f# 4d/	8.D\	Sa-	.	8.A\	Sa-	f	8.d/	Sa-	.	8.f#/	Sa-	f
!	!	!	!	!LO:DY:a:rj	!	!	!	!LO:TX:a:Bi:t=tutti	!	!	!LO:TX:a:Bi:t=tutti	!	!
.	.	16D\	-cri-	f	16A\	-cri-	.	16d/	-cri-	.	16f#/	-cri-	.
=1	=1	=1	=1	=1	=1	=1	=1	=1	=1	=1	=1	=1	=1
2.A 2.D\	2.f# 2.d/	4.D\	-fi-	.	4.A\	-fi-	.	4.d/	-fi-	.	4.f#/	-fi-	.
.	.	8D\	-ci-	.	8A\	-ci-	.	8d/	-ci-	.	8f#/	-ci-	.
.	.	4D\	-um	.	4A\	-um	.	4d/	-um	.	4f#/	-um	.
=2	=2	=2	=2	=2	=2	=2	=2	=2	=2	=2	=2	=2	=2
*^	*^	*	*	*	*	*	*	*	*	*	*	*	*
2A/	4C#\	8.a/L	4e\	4C#/	De-	.	4A/	De-	.	4e/	De-	.	(<8.a/L	De-	.
.	.	16g/Jk	.	.	.	.	.	.	.	.	.	.	16g/Jk)	.	.
.	4D\	4f# 4d/	4ryy	4D/	-o	.	4A/	-o	.	4d/	-o	.	4f#/	-o	.
4r	4ryy	4r	4ryy	4r	.	.	4r	.	.	4r	.	.	4r	.	.
*v	*v	*	*	*	*	*	*	*	*	*	*	*	*	*	*
*	*v	*v	*	*	*	*	*	*	*	*	*	*	*	*
=3	=3	=3	=3	=3	=3	=3	=3	=3	=3	=3	=3	=3	=3
!	!	!	!	!LO:DY:b:rj	!	!	!LO:DY:a:rj	!	!	!	!	!	!
2.B 2.BB\	2.f# 2.d/	8.BB/	Spi-	p	8.B\	Spi-	p	8.d/	Spi-	.	8.f#/	Spi-	.
.	.	16BB/	-ri-	.	16B\	-ri-	.	16d/	-ri-	.	16f#/	-ri-	.
.	.	8BB/	-tus	.	8B\	-tus	.	8d/	-tus	.	8f#/	-tus	.
.	.	8BB/	con-	.	8B\	con-	.	8d/	con-	.	8f#/	con-	.
.	.	8BB/	-tri-	.	8B\	-tri-	.	8d/	-tri-	.	8f#/	-tri-	.
.	.	8BB/	-bu-	.	8d\	-bu-	.	8d/	-bu-	.	8f#/	-bu-	.
=4	=4	=4	=4	=4	=4	=4	=4	=4	=4	=4	=4	=4	=4
!	!	!LO:N:vis=8	!	!	!	!	!	!	!	!	!	!	!
8.AA#X\L	8.gL 8.e 8.c#/	8.AA#X/L	-la-	.	8.c#\L	-la-	.	8.e/L	la-	.	(<8.g/L	-la-	.
16BB\Jk	16f#Jk 16d/	16BB/Jk	.	.	16d\Jk	.	.	16d/Jk	.	.	16f#/Jk)	.	.
4BB\	4f# 4d/	4BB/	-tus	.	4d\	-tus	.	4d/	-tus	.	4f#/	-tus ,	.
4r	4r	4r	.	.	4r	.	.	4r	.	.	4r	.	.
!LO:LB:g=original	!LO:LB:g=original	!LO:LB:g=original	!	!	!	!	!	!	!	!	!LO:LB:g=original	!	!
=5	=5	=5	=5	=5	=5	=5	=5	=5	=5	=5	=5	=5	=5
4r	4r	4r	.	.	4r	.	.	4r	.	.	4r	.	.
4r	4r	4r	.	.	4r	.	.	4r	.	.	4r	.	.
!	!	!	!	!LO:DY:a:rj	!	!	!LO:DY:a:rj	!	!	!LO:DY:b:rj	!	!	!
4G\	4e 4B/	8.G\	Sa-	f	8.B\	Sa-	f	8.e/	Sa-	f	8.e/	Sa-	.
.	.	16G\	-cri-	.	16B\	-cri-	.	16e/	-cri-	.	16e/	-cri-	.
!	!	!	!	!	!LO:LB:g=original	!	!	!LO:LB:g=original	!	!	!	!	!
=6	=6	=6	=6	=6	=6	=6	=6	=6	=6	=6	=6	=6	=6
2.G\	2.e 2.B/	4.G\	-fi-	.	4.B\	-fi-	.	4.e/	-fi-	.	4.e/	-fi-	.
.	.	8G\	-ci-	.	8B\	-ci-	.	8e/	-ci-	.	8e/	-ci-	.
.	.	4G\	-um	.	4B\	-um	.	4e/	-um	.	4e/	-um	.
=7	=7	=7	=7	=7	=7	=7	=7	=7	=7	=7	=7	=7	=7
*	*^	*	*	*	*	*	*	*	*	*	*	*	*
4B 4F#\	8.b/L	4d#X\	4F#\	De-	.	4B\	De-	.	4d#X/	De-	.	(<8.b/L	De-	.
.	16a/Jk	.	.	.	.	.	.	.	.	.	.	16a/Jk)	.	.
4B 4E\	4g 4e/	4ryy	4E\	-o	.	4B\	-o	.	4e/	-o	.	4g/	-o	.
4r	4r	4ryy	4r	.	.	4r	.	.	4r	.	.	4r	.	.
*	*v	*v	*	*	*	*	*	*	*	*	*	*	*	*
=8	=8	=8	=8	=8	=8	=8	=8	=8	=8	=8	=8	=8	=8
!	!	!	!	!LO:DY:b:rj	!	!	!LO:DY:b:rj	!	!	!LO:DY:b:rj	!	!	!
2A 2C#\	2.a 2.e/	8.C#/	Spi-	pp	8.A/	Spi-	p	8.e/	Spi-	p	8.g/	Spi-	.
.	.	16C#/	-ri-	.	16A/	-ri-	.	16e/	-ri-	.	16g/	-ry-	.
.	.	8C#/	-tus	.	8A/	-tus	.	8e/	-tus	.	8g/	-tus	.
.	.	8C#/	con-	.	8A/	con-	.	8e/	con-	.	8g/	con-	.
4B-X 4D\	.	8D/	-tri-	.	8B-X\	-tri-	.	8e/	-tri-	.	8g/	-tri-	.
.	.	8D/	-bu-	.	8B-\	-bu-	.	8e/	-bu-	.	8g/	-bu-	.
=9	=9	=9	=9	=9	=9	=9	=9	=9	=9	=9	=9	=9	=9
*^	*^	*	*	*	*	*	*	*	*	*	*	*	*
2A/	4C#\	8.g/L	4e\	4C#/	-la-	.	4A\	-la-	.	4e/	-la-	.	(<8.g/L	-la-	.
.	.	16a/Jk	.	.	.	.	.	.	.	.	.	.	16a/Jk	.	.
.	4D\	4f# 4d/	4ryy	4D/	-tus	.	4A\	-tus	.	4d/	-tus	.	4f#/)	-tus	.
4r	4ryy	4r	4ryy	4r	.	.	4r	.	.	4r	.	.	4r	.	.
!LO:LB:g=original	!	!LO:LB:g=original	!	!	!	!	!	!	!	!	!	!	!	!	!
*v	*v	*	*	*	*	*	*	*	*	*	*	*	*	*	*
=10	=10	=10	=10	=10	=10	=10	=10	=10	=10	=10	=10	=10	=10	=10
!	!	!	!	!	!LO:DY:a:rj	!	!	!LO:DY:b:rj	!	!	!LO:DY:a:rj	!	!	!
2B 2BB\	2dd 2f#\	2ryy	2BB/	cor	f	2B\	cor	f	2f#/	cor	mf	2dd\	cor	.
4A#X 4E\	8.dd/L	4g\	4E\	con-	.	4A#X\	con-	.	4g/	con-	.	(>8.dd\L	con-	.
.	16cc#/Jk	.	.	.	.	.	.	.	.	.	.	16cc#\Jk)	.	.
!	!	!	!LO:LB:g=original	!	!	!	!	!	!	!	!	!LO:LB:g=original	!	!
*	*v	*v	*	*	*	*	*	*	*	*	*	*	*	*
=11	=11	=11	=11	=11	=11	=11	=11	=11	=11	=11	=11	=11	=11
8.A#XL 8.E\	8.cc#L 8.g/	8.E\L	-tri-	.	8.A#X\L	-tri-	.	8.g/L	-tri-	.	(>8.cc#\L	-tri-	.
16BJk 16D\	16bJk 16f#/	16D\Jk	.	.	16B\Jk	.	.	16f#/Jk	.	.	16b\Jk)	.	.
2B 2D\	2b 2f#/	2D\	-tum	.	2B\	-tum	.	2f#/	-tum	.	2b\	-tum	.
!	!	!	!	!	!	!	!	!LO:LB:g=original	!	!	!	!	!
=12	=12	=12	=12	=12	=12	=12	=12	=12	=12	=12	=12	=12	=12
*	*^	*	*	*	*	*	*	*	*	*	*	*	*
2.B 2.D#X\	4.b/	2f#\	4.D#X\	et	.	4.B\	et	.	4.f#/	et	.	4.b\	et	.
.	8ccn/L	.	8D#\	hu-	.	8F#/	hu-	.	8f#/	hu-	.	8ccn\	hu-	.
.	8b/	4ryy	8D#\	-mi-	.	8B\	-mi-	.	8f#/	-mi-	.	8b\	-mi-	.
.	8a/J	.	8D#\	-li-	.	8B\	-li-	.	8f#/	-li-	.	8a\	-li-	.
!	!	!	!	!	!	!LO:LB:g=original	!	!	!	!	!	!	!	!
*	*v	*v	*	*	*	*	*	*	*	*	*	*	*	*
=13	=13	=13	=13	=13	=13	=13	=13	=13	=13	=13	=13	=13	=13
2.B 2.E\	8.aL 8.f#/	4E\	-a-	.	4B\	-a-	.	8.f#/L	-a-	.	(<8.a/L	-a-	.
.	16gJk 16e/	.	.	.	.	.	.	16e/Jk	.	.	16g/Jk)	.	.
.	2g 2e/	2E\	-tum	.	2B\	-tum	.	2e/	-tum	.	2g/	-tum,	.
=14	=14	=14	=14	=14	=14	=14	=14	=14	=14	=14	=14	=14	=14
!	!	!	!	!LO:DY:b:rj	!	!	!LO:DY:b:rj	!	!	!LO:DY:b:rj	!	!	!
2.c# 2.A\	2.ee 2.a\	2.A\	De-	ff	2.c#\	De-	ff	2.g/	De-	f	2.ee\	De-	.
!LO:LB:g=original	!LO:LB:g=original	!	!	!	!	!	!	!	!	!	!	!	!
=15	=15	=15	=15	=15	=15	=15	=15	=15	=15	=15	=15	=15	=15
*	*^	*	*	*	*	*	*	*	*	*	*	*	*
4d 4B\	2dd/	4f#\	4B\	-us	.	4d\	-us	.	4f#/	-us	.	4dd\	-us	.
!	!	!	!	!	!	!	!	!LO:DY:b:rj	!	!	!LO:DY:b:rj	!	!	!
4B 4G\	.	2g\	4G\	non	.	4B\	non	p	4g/	non	p	4dd\	non	.
4d 4G\	8cc#/L	.	4G\	de-	.	4d\	de-	.	4g/	de-	.	(>8cc#\L	de-	.
.	8b/J	.	.	.	.	.	.	.	.	.	.	8b\J	.	.
=16	=16	=16	=16	=16	=16	=16	=16	=16	=16	=16	=16	=16	=16	=16
*^	*	*	*	*	*	*	*	*	*	*	*	*	*	*
4d/	2.A\	2a/	2.e\	2A\	-spi-	.	4d\	-Spi-	.	2e/	-spi-	.	2a/)	-spi-	.
2c#/	.	.	.	.	.	.	2c#\	-ci-	.	.	.	.	.	.	.
.	.	8.a/L	.	4A\	-ci-	.	.	.	.	4e/	-ci-	.	(<8.a/L	-ci-	.
.	.	16g/Jk	.	.	.	.	.	.	.	.	.	.	16g/Jk)	.	.
!	!	!	!	!	!	!	!	!	!	!	!	!	!LO:LB:g=original	!	!
*v	*v	*	*	*	*	*	*	*	*	*	*	*	*	*	*
*	*v	*v	*	*	*	*	*	*	*	*	*	*	*	*
=17	=17	=17	=17	=17	=17	=17	=17	=17	=17	=17	=17	=17	=17
!	!	!	!	!	!LO:SIC:s=2d:v:t=lub B	!	!	!	!	!	!	!	!
2.B\	2.f# 2.d/	2B\	-es	.	2c#\	-es	.	2d/	-es	.	2f#/	-es	.
.	.	4r	.	.	4r	.	.	4r	.	.	4r	.	.
=18	=18	=18	=18	=18	=18	=18	=18	=18	=18	=18	=18	=18	=18
!	!	!	!	!LO:DY:b:rj	!	!	!LO:DY:b:rj	!	!	!LO:DY:a:rj	!	!	!
2.d#X 2.A\	2.ff# 2.b\	2.A\	De-	ff	2.d#X\	De-	ff	2.b\	De-	f	2.ff#\	De-	.
=19	=19	=19	=19	=19	=19	=19	=19	=19	=19	=19	=19	=19	=19
*^	*^	*	*	*	*	*	*	*	*	*	*	*	*
2.e/	4G\	4ee/	2.b\	4G\	-us	.	4e\	-us	.	4b\	-us	.	4ee\	-us	.
.	4E\	4gg/	.	4E\	non	.	4e\	non	.	4b\	non	.	4gg\	non	.
.	4G\	4ee/	.	4G\	de-	.	4e\	de-	.	4b\	de-	.	4ee\	de-	.
*v	*v	*	*	*	*	*	*	*	*	*	*	*	*	*	*
=20	=20	=20	=20	=20	=20	=20	=20	=20	=20	=20	=20	=20	=20	=20
2A\	2dd/	4a 4f#\	2A\	-spi-	.	4f#\	-spi-	.	4a/	-spi-	.	(>2dd\	-spi-	.
.	.	2g 2e\	.	.	.	2e\	-ci-	.	2g/	-ci-	.	.	.	.
4AA/	4cc#/	.	4AA/	-ci-	.	.	.	.	.	.	.	8cc#\)	.	.
.	.	.	.	.	.	.	.	.	.	.	.	8cc#\	-ci-	.
*	*v	*v	*	*	*	*	*	*	*	*	*	*	*	*
=21	=21	=21	=21	=21	=21	=21	=21	=21	=21	=21	=21	=21	=21
2A 2D\	2dd 2f#\	2D\	-es	.	2d\	-es.	.	2f#/	-es	.	2dd\	-es	.
4r	4r	4r	.	.	4r	.	.	4r	.	.	4r	.	.
==	==	==	==	==	==	==	==	==	==	==	==	==	==
*-	*-	*-	*-	*-	*-	*-	*-	*-	*-	*-	*-	*-	*-
!!!system-decoration: [(s1,s2,s3,s4)][(s5,s6)]
!!!RDF**kern: > = above
!!!RDF**kern: < = below
!!!EED: Wojciech Jakubiak-Danek
!!!EEV: 2021-01-03
!!!ENC: Andrzej Borzym
!!!END: 2021-01-01
